X: 173
T: SINGLE JIG: Tonn Clíodhna
C: C: Brendan Begley; S: Brendan Begley
C: Set Leaders: Alexey, Anton, Sophie
Z: Anton Zille ed.; jaychoons at The Session
N: https://thesession.org/members/26966/sets/68391
R: Single Jig
M: 12/8
L: 1/8
Q: 3/8=116
K: Edor
|:EFG BdB BdB BAF|DEF ABA ABA AFD|
EFG BdB BdB BAF|1 DEF ABA AFD E2 B,:|2 DEF ABA AFD E3||
|:efe efe efg gag|fgf ~d2 A def f/g/af|
efe efe efg gag|EFG BdB AFD E3:||
|:efe efe efe edB|ded ded dAF AFD|
efe efe efe edB|1 EFG BdB AFD E3:|2 EFG BdB AFD E2 B,||

